X: 21
T:D-Dur-Schleuniger #21
M:3/4
L:1/8
C:trad
R:Schleuniger
S:j.m. schmalnauer: "tanz musik", bhlau, wien 1996 (compa bd. 5) 
K:D
df|:a2 (bagA)|d2 (fAgA)|[A4e4] df|a2 bagA|d2 fAeA|d4  df:|
a2 bagA|d2 fagb|e2 cAdf|a2 bagA|d2 fAeA|d4  :|
